X: 2249
T: Babble At Lowbridge
R: jig
M: 6/8
K: Dmajor
|:g2d edB|dBD EGB|AGE A2B|deg age|
g2d edB|dBD EGB|AGE A2B|GED D3:|
|:BGG dGG|g3 dBG|g2g age|deg age|
g2d edB|dBD EGB|AGE A2B|GED D3:|

